src/assets/bold/lm-squares-plus-bold.svg

<svg width="24" height="24" viewBox="0 0 24 24" fill="none" xmlns="http://www.w3.org/2000/svg" fill="currentColor">
<path d="M9.44776 3H4.61194C4.18443 3 3.77442 3.1724 3.47213 3.47928C3.16983 3.78616 3 4.20237 3 4.63636V9.54545C3 9.97945 3.16983 10.3957 3.47213 10.7025C3.77442 11.0094 4.18443 11.1818 4.61194 11.1818H9.44776C9.87527 11.1818 10.2853 11.0094 10.5876 10.7025C10.8899 10.3957 11.0597 9.97945 11.0597 9.54545V4.63636C11.0597 4.20237 10.8899 3.78616 10.5876 3.47928C10.2853 3.1724 9.87527 3 9.44776 3ZM9.44776 9.54545H4.61194V4.63636H9.44776V9.54545ZM9.44776 12.8182H4.61194C4.18443 12.8182 3.77442 12.9906 3.47213 13.2975C3.16983 13.6043 3 14.0206 3 14.4545V19.3636C3 19.7976 3.16983 20.2138 3.47213 20.5207C3.77442 20.8276 4.18443 21 4.61194 21H9.44776C9.87527 21 10.2853 20.8276 10.5876 20.5207C10.8899 20.2138 11.0597 19.7976 11.0597 19.3636V14.4545C11.0597 14.0206 10.8899 13.6043 10.5876 13.2975C10.2853 12.9906 9.87527 12.8182 9.44776 12.8182ZM9.44776 19.3636H4.61194V14.4545H9.44776V19.3636ZM19.1194 12.8182H14.2836C13.8561 12.8182 13.4461 12.9906 13.1438 13.2975C12.8415 13.6043 12.6716 14.0206 12.6716 14.4545V19.3636C12.6716 19.7976 12.8415 20.2138 13.1438 20.5207C13.4461 20.8276 13.8561 21 14.2836 21H19.1194C19.5469 21 19.9569 20.8276 20.2592 20.5207C20.5615 20.2138 20.7313 19.7976 20.7313 19.3636V14.4545C20.7313 14.0206 20.5615 13.6043 20.2592 13.2975C19.9569 12.9906 19.5469 12.8182 19.1194 12.8182ZM19.1194 19.3636H14.2836V14.4545H19.1194V19.3636Z" fill="black"/>
<path d="M20.7639 7.94218C20.9151 7.78874 21 7.58063 21 7.36364C21 7.14664 20.9151 6.93853 20.7639 6.78509C20.6128 6.63166 20.4078 6.54545 20.194 6.54545H17.7761V4.09091C17.7761 3.87391 17.6912 3.66581 17.5401 3.51237C17.3889 3.35893 17.1839 3.27273 16.9701 3.27273C16.7564 3.27273 16.5514 3.35893 16.4002 3.51237C16.2491 3.66581 16.1642 3.87391 16.1642 4.09091V6.54545H13.7463C13.5325 6.54545 13.3275 6.63166 13.1764 6.78509C13.0252 6.93853 12.9403 7.14664 12.9403 7.36364C12.9403 7.58063 13.0252 7.78874 13.1764 7.94218C13.3275 8.09562 13.5325 8.18182 13.7463 8.18182H16.1642V10.6364C16.1642 10.8534 16.2491 11.0615 16.4002 11.2149C16.5514 11.3683 16.7564 11.4545 16.9701 11.4545C17.1839 11.4545 17.3889 11.3683 17.5401 11.2149C17.6912 11.0615 17.7761 10.8534 17.7761 10.6364V8.18182H20.194C20.4078 8.18182 20.6128 8.09562 20.7639 7.94218Z" fill="black"/>
</svg>

<svg xmlns="http://www.w3.org/2000/svg" width="24" height="24" fill="currentColor" viewBox="0 0 24 24">
  <path d="M9.448 3H4.612a1.6 1.6 0 0 0-1.14.48A1.649 1.649 0 0 0 3 4.635v4.91c0 .433.17.85.472 1.157a1.6 1.6 0 0 0 1.14.479h4.836a1.6 1.6 0 0 0 1.14-.48c.302-.306.472-.723.472-1.157V4.636c0-.434-.17-.85-.472-1.157A1.6 1.6 0 0 0 9.448 3Zm0 6.545H4.612V4.636h4.836v4.91Zm0 3.273H4.612a1.6 1.6 0 0 0-1.14.48A1.649 1.649 0 0 0 3 14.454v4.91c0 .434.17.85.472 1.157a1.6 1.6 0 0 0 1.14.479h4.836a1.6 1.6 0 0 0 1.14-.48c.302-.306.472-.722.472-1.156v-4.91c0-.433-.17-.85-.472-1.157a1.6 1.6 0 0 0-1.14-.479Zm0 6.546H4.612v-4.91h4.836v4.91Zm9.671-6.546h-4.835a1.6 1.6 0 0 0-1.14.48 1.649 1.649 0 0 0-.472 1.156v4.91c0 .434.17.85.472 1.157a1.6 1.6 0 0 0 1.14.479h4.835a1.6 1.6 0 0 0 1.14-.48c.302-.306.472-.722.472-1.156v-4.91c0-.433-.17-.85-.472-1.157a1.6 1.6 0 0 0-1.14-.479Zm0 6.546h-4.835v-4.91h4.835v4.91Zm1.645-11.422a.824.824 0 0 0 0-1.157.8.8 0 0 0-.57-.24h-2.418V4.091a.825.825 0 0 0-.236-.579.8.8 0 0 0-1.14 0 .825.825 0 0 0-.236.579v2.454h-2.418a.8.8 0 0 0-.57.24.824.824 0 0 0 0 1.157.8.8 0 0 0 .57.24h2.418v2.454c0 .217.085.426.236.579a.8.8 0 0 0 1.14 0 .824.824 0 0 0 .236-.579V8.182h2.418a.8.8 0 0 0 .57-.24Z"/>
</svg>
